packages/bezier-icons/icons/cart-abandoned.svg

<svg width="24" height="24" viewBox="0 0 24 24" fill="none" xmlns="http://www.w3.org/2000/svg">
<path fill-rule="evenodd" clip-rule="evenodd" d="M2 5H4.77471L5.71021 13.4406C5.93479 15.4668 7.64725 17 9.68587 17H16.3149C18.3531 17 20.0653 15.4675 20.2904 13.4417L20.4506 12H18.4383L18.3026 13.2209C18.1901 14.2337 17.334 15 16.3149 15H9.68587C8.66656 15 7.81033 14.2334 7.69804 13.2203L7.11946 8H10V6H6.89779L6.76254 4.77968C6.65025 3.76658 5.79402 3 4.77471 3H2V5ZM5.99969 20C5.99969 18.899 6.89969 18 7.99969 18C9.09969 18 9.99969 18.899 9.99969 20C9.99969 21.1 9.09969 22 7.99969 22C6.89969 22 5.99969 21.1 5.99969 20ZM15.9997 20C15.9997 18.899 16.8997 18 17.9997 18C19.0997 18 19.9997 18.899 19.9997 20C19.9997 21.1 19.0997 22 17.9997 22C16.8997 22 15.9997 21.1 15.9997 20ZM16.3009 11.5986C16.1109 11.7706 15.8259 11.7706 15.6359 11.5986C14.5439 10.6126 12.7459 8.9346 11.6849 7.6596C10.6989 6.4746 10.7239 4.8366 11.8009 3.7606C12.0039 3.5576 12.2709 3.3946 12.5589 3.2636C13.7549 2.7236 15.3199 3.1176 15.9689 4.3426C16.6169 3.1176 18.1819 2.7236 19.3779 3.2636C19.6659 3.3946 19.9329 3.5576 20.1359 3.7606C21.2129 4.8366 21.2379 6.4746 20.2529 7.6596C19.1909 8.9346 17.3929 10.6126 16.3009 11.5986Z" fill="#313234"/>
</svg>

<svg xmlns="http://www.w3.org/2000/svg" width="24" height="24" fill="none" viewBox="0 0 24 24"><path fill="#313234" fill-rule="evenodd" d="M2 5h2.775l.935 8.44A4 4 0 0 0 9.686 17h6.629a4 4 0 0 0 3.975-3.558L20.45 12h-2.012l-.135 1.22A2 2 0 0 1 16.315 15h-6.63a2 2 0 0 1-1.987-1.78L7.119 8H10V6H6.898l-.135-1.22A2 2 0 0 0 4.775 3H2zm4 15c0-1.101.9-2 2-2s2 .899 2 2-.9 2-2 2-2-.9-2-2m10 0c0-1.101.9-2 2-2s2 .899 2 2-.9 2-2 2-2-.9-2-2m.3-8.401a.493.493 0 0 1-.664 0c-1.092-.986-2.89-2.664-3.951-3.94-.986-1.184-.961-2.822.116-3.898.203-.203.47-.366.758-.497 1.196-.54 2.76-.146 3.41 1.079.648-1.225 2.213-1.62 3.409-1.08.288.132.555.295.758.498 1.077 1.076 1.102 2.714.117 3.899-1.062 1.275-2.86 2.953-3.952 3.939" clip-rule="evenodd"/></svg>
